X:35
T:Bourree Marrakech
M:2/4
L:1/8
K:AMin
e>d ef|af  ed|e>d ef|e2  d2 |\
e>d ef|af  ed|e>d ef|e2  d2:|
A>E AB|cB  A2|c>B cd|c2  B2 |\
A>E AB|cB  A2|c>B cd|c2  B2:|
d>c de|d>c Bd|cA- AB|cB- Bc |\
d>c de|d>c Bd|cA  Bc|A2  A2:|
B>e dc|B4    |ef- fe|ed- dc |\
B>e dc|B4    |e2  d2|c4    :|

%%newpage
%%textfont Times-Roman 18
%%vskip 0.5cm
%%center Extras
%%textfont Times-Roman 14
%%center things I like and might persuade the others about someday
%%vskip 0.5cm

